X: 37055
T: Silver Slipper, The
R: slip jig
M: 9/8
K: Dmajor
F2D D3 F2D|D3 F2A d2z|F2D D3 F2D|F2A B2G E2G|
F2D D3 F2D|D3 F2A d2z|F2D D3 F2D|F2A B2G E2G||
F2A d2c d3|F2A d2A Bcd|F2A d2c d3|B2G E2G G2E|
F2A D3 D3|F2A d2A Bcd|e2c d2A F2A|B2G E2G G2E||

